public/avatar/shoe/153.svg

<svg xmlns:xlink="http://www.w3.org/1999/xlink" height="38.3" width="36.05" xmlns="http://www.w3.org/2000/svg"><use height="15.75" transform="translate(5.15 13.65)" width="27.75" xlink:href="#a"/><defs><g id="a" fill-rule="evenodd"><path d="m6.85.75 1.6 4.15q1.3 4.4.05 6-2.7 3.2-8.4 3.65-1.7.1-4.3-1.3l-1.9-.75q-.45-.1-1.65.8-2 1.7-3.25.8l-4.25-.95-3.4.25 1-1.5q1.15-1.55 2.4-1.8 1.1-.3 3.45-3.05l1.45-1.55Q-8.3 4.1-8 4.1l1.45-.2.75-2.15q.85-2.6 2.35-2.95l5.05.15Q6.15-.5 6.85.75" fill="#0d090e" transform="translate(18.65 1.2)"/><path d="M5.9 1.65q3.2 6.4 1.85 8.1Q5.5 12.6.1 13.05q-4.4-1.7-6-2.05-.8-.2-2.4 1.15-1.45 1.15-2.1.65l-4.8-1.2q2.05-.15 5.35-4.75l3.7-1.5q.5-.3 1.5-2.6Q-3.75.5-2.85.4 4.8-.5 5.9 1.65" fill="#825540" transform="translate(18.65 1.2)"/><path d="M7.55 9.55q-.6.9-5.7 2.95l-4.8-.25q-2.95-1.25-3.6-1.2-1.1.2-2.05 1.2-.85.8-1.25.8-3.35-1.55-4.75-1.35l5.15-.55Q-6.75 9.1-6.1 9.2q1.55.15 7.1-4.4 3.8-2.35 4.2-1.7 2.75 5.8 2.35 6.45" fill="#5d3021" transform="translate(18.65 1.2)"/><path d="m-11.05 8.65-1.6 1.45q3.4-4.5 6.5-4.75 1.05-.2 1.55-2.9Q-4.15.3-1.9.3l3.7.55Q-2.65.5-3.25 3.35-3.5 4.9-5.4 6.25q-1.75 1.25-3 1.05-.9-.1-2.65 1.35" fill="#b87c62" transform="translate(18.65 1.2)"/></g></defs></svg>

<?xml version="1.0" encoding="UTF-8" standalone="no"?>
<svg xmlns:xlink="http://www.w3.org/1999/xlink" height="38.3px" width="36.05px" xmlns="http://www.w3.org/2000/svg">
  <g transform="matrix(1.0, 0.0, 0.0, 1.0, 23.8, 14.85)">
    <use height="15.75" transform="matrix(1.0, 0.0, 0.0, 1.0, -18.65, -1.2)" width="27.75" xlink:href="#shape0"/>
  </g>
  <defs>
    <g id="shape0" transform="matrix(1.0, 0.0, 0.0, 1.0, 18.65, 1.2)">
      <path d="M6.85 0.75 L8.45 4.9 Q9.75 9.3 8.5 10.9 5.8 14.1 0.1 14.55 -1.6 14.65 -4.2 13.25 L-6.1 12.5 Q-6.55 12.4 -7.75 13.3 -9.75 15.0 -11.0 14.1 L-15.25 13.15 -18.65 13.4 -17.65 11.9 Q-16.5 10.35 -15.25 10.1 -14.15 9.8 -11.8 7.05 L-10.35 5.5 Q-8.3 4.1 -8.0 4.1 L-6.55 3.9 -5.8 1.75 Q-4.95 -0.85 -3.45 -1.2 L1.6 -1.05 Q6.15 -0.5 6.85 0.75" fill="#0d090e" fill-rule="evenodd" stroke="none"/>
      <path d="M5.9 1.65 Q9.1 8.05 7.75 9.75 5.5 12.6 0.1 13.05 -4.3 11.35 -5.9 11.0 -6.7 10.8 -8.3 12.15 -9.75 13.3 -10.4 12.8 L-15.2 11.6 Q-13.15 11.45 -9.85 6.85 L-6.15 5.35 Q-5.65 5.05 -4.65 2.75 -3.75 0.5 -2.85 0.4 4.8 -0.5 5.9 1.65" fill="#825540" fill-rule="evenodd" stroke="none"/>
      <path d="M7.55 9.55 Q6.95 10.45 1.85 12.5 L-2.95 12.25 Q-5.9 11.0 -6.55 11.05 -7.65 11.25 -8.6 12.25 -9.45 13.05 -9.85 13.05 -13.2 11.5 -14.6 11.7 L-9.45 11.15 Q-6.75 9.1 -6.1 9.2 -4.55 9.35 1.0 4.8 4.8 2.45 5.2 3.1 7.95 8.9 7.55 9.55" fill="#5d3021" fill-rule="evenodd" stroke="none"/>
      <path d="M-11.05 8.65 L-12.65 10.1 Q-9.25 5.6 -6.15 5.35 -5.1 5.15 -4.6 2.45 -4.15 0.3 -1.9 0.3 L1.8 0.85 Q-2.65 0.5 -3.25 3.35 -3.5 4.9 -5.4 6.25 -7.15 7.5 -8.4 7.3 -9.3 7.2 -11.05 8.65" fill="#b87c62" fill-rule="evenodd" stroke="none"/>
    </g>
  </defs>
</svg>
